; generated by Slic3r 1.36.2-prusa3d-win64 on 2018-01-22 at 15:06:18

; 

; external perimeters extrusion width = 0.45mm
; perimeters extrusion width = 0.45mm
; infill extrusion width = 0.45mm
; solid infill extrusion width = 0.45mm
; top infill extrusion width = 0.21mm

M107
M80 ; turn on PSU
M140 S60
M104 S200 ; start E heating
M17; enable motors
G28 X Y ; Z ; Home
M190 S60
M109 S200
G91
G1 E5 F200
G90
; Filament gcode

G21 ; set units to millimeters
G90 ; use absolute coordinates
M82 ; use absolute distances for extrusion
G92 E0
G1 E-2.00000 F3600.00000
G92 E0
G1 Z0.200 F5400.000
G1 X150.890 Y124.032 F5400.000
G1 E2.00000 F3600.00000
G1 F900
G1 X151.841 Y123.095 E2.04088
G1 X152.819 Y122.453 E2.07668
G1 X154.050 Y121.961 E2.11728
G1 X155.260 Y121.747 E2.15492
G1 X187.255 Y121.726 E3.13460
G1 X188.569 Y121.868 E3.17507
G1 X189.690 Y122.220 E3.21105
G1 X226.748 Y138.746 E4.45347
G1 X227.926 Y139.416 E4.49496
G1 X228.918 Y140.310 E4.53587
G1 X229.533 Y141.115 E4.56687
G1 X230.003 Y141.998 E4.59750
G1 X230.359 Y143.077 E4.63231
G1 X230.509 Y144.059 E4.66272
G1 X230.521 Y162.168 E5.21719
G1 X230.375 Y163.356 E5.25387
G1 X229.956 Y164.608 E5.29428
G1 X229.383 Y165.605 E5.32950
G1 X228.509 Y166.607 E5.37020
G1 X227.524 Y167.350 E5.40797
G1 X226.584 Y167.824 E5.44022
G1 X225.566 Y168.133 E5.47280
G1 X224.362 Y168.273 E5.50991
G1 X155.723 Y168.274 E7.61163
G1 X154.393 Y168.125 E7.65260
G1 X153.240 Y167.749 E7.68974
G1 X152.074 Y167.084 E7.73083
G1 X151.082 Y166.190 E7.77175
G1 X150.401 Y165.279 E7.80655
G1 X149.881 Y164.212 E7.84290
G1 X149.588 Y163.179 E7.87578
G1 X149.479 Y162.116 E7.90851
G1 X149.482 Y127.729 E8.96142
G1 X149.595 Y126.781 E8.99066
G1 X149.863 Y125.834 E9.02079
G1 X150.336 Y124.832 E9.05472
G1 X150.856 Y124.081 E9.08270
G1 F4320
G1 X151.841 Y123.095 E7.97902
G1 F4320
G1 X152.682 Y122.543 E7.18270
G1 E7.08270 F3600.00000
G92 E0
G1 X151.438 Y124.295 F5400.000
G1 X151.675 Y123.829 F5400.000
G1 X154.418 Y123.087 F5400.000
G1 X154.259 Y122.325 F5400.000
G1 E2.00000 F3600.00000
G1 F900
G1 X155.490 Y122.141 E2.03810
G1 X187.255 Y122.133 E3.01075
G1 X188.511 Y122.271 E3.04944
G1 X189.582 Y122.618 E3.08392
G1 X226.630 Y139.139 E4.32599
G1 X227.697 Y139.753 E4.36370
G1 X228.606 Y140.572 E4.40116
G1 X229.185 Y141.327 E4.43030
G1 X229.628 Y142.156 E4.45908
G1 X229.964 Y143.177 E4.49197
G1 X230.103 Y144.099 E4.52055
G1 X230.114 Y162.154 E5.07338
G1 X229.978 Y163.264 E5.10763
G1 X229.588 Y164.435 E5.14540
G1 X229.057 Y165.361 E5.17811
G1 X228.246 Y166.296 E5.21601
G1 X227.315 Y167.000 E5.25174
G1 X226.431 Y167.447 E5.28206
G1 X225.483 Y167.734 E5.31240
G1 X224.345 Y167.866 E5.34749
G1 X155.729 Y167.867 E7.44849
G1 X154.484 Y167.728 E7.48686
G1 X153.416 Y167.382 E7.52124
G1 X152.319 Y166.760 E7.55983
G1 X151.394 Y165.928 E7.59794
G1 X150.754 Y165.076 E7.63056
G1 X150.263 Y164.073 E7.66476
G1 X149.988 Y163.106 E7.69554
G1 X149.886 Y162.111 E7.72617
G1 X149.889 Y127.753 E8.77821
G1 X149.994 Y126.862 E8.80566
G1 X150.244 Y125.978 E8.83381
G1 X150.691 Y125.031 E8.86586
G1 X151.216 Y124.276 E8.89402
G1 X152.128 Y123.386 E8.93304
G1 X153.077 Y122.778 E8.96756
G1 X154.203 Y122.347 E9.00448
G1 F4320
G1 X155.490 Y122.141 E7.97309
G1 F4320
G1 X156.587 Y122.140 E7.10448
G1 E7.00448 F3600.00000
G92 E0
G1 X155.868 Y130.618 F5400.000
G1 E2.00000 F3600.00000
G1 F900
G1 X187.132 Y130.618 E2.95731
G1 X187.132 Y141.882 E3.30221
G1 X155.868 Y141.882 E4.25952
G1 X155.868 Y130.678 E4.60259
G1 X156.275 Y131.025 F5400.000
G1 F900
G1 X186.725 Y131.025 E5.53496
G1 X186.725 Y141.475 E5.85494
G1 X156.275 Y141.475 E6.78732
G1 X156.275 Y131.085 E7.10546
G1 X156.114 Y130.659 F5400.000
G1 X155.332 Y130.211 F5400.000
G1 F900
G1 X155.332 Y128.004 E7.17303
G1 X155.361 Y127.849 E7.17785
G1 X155.432 Y127.737 E7.18192
G1 X155.508 Y127.666 E7.18509
G1 X155.598 Y127.616 E7.18826
G1 X155.730 Y127.582 E7.19243
G1 X187.207 Y127.581 E8.15626
G1 X187.379 Y127.603 E8.16156
G1 X187.514 Y127.677 E8.16625
G1 X187.632 Y127.819 E8.17194
G1 X187.668 Y128.006 E8.17777
G1 X187.668 Y130.211 E8.24526
G1 X155.392 Y130.211 E9.23355
G1 F4320
G1 X155.332 Y128.004 E7.48587
G1 F4320
G1 X155.361 Y127.849 E7.36122
G1 F4320
G1 X155.380 Y127.820 E7.33355
G1 E7.23355 F3600.00000
G92 E0
G1 X155.396 Y142.250 F5400.000
G1 X160.159 Y147.116 F5400.000
G1 X163.714 Y145.988 F5400.000
G1 X167.214 Y145.652 F5400.000
G1 X169.244 Y145.808 F5400.000
G1 X171.357 Y146.245 F5400.000
G1 X173.632 Y147.026 F5400.000
G1 X175.490 Y147.903 F5400.000
G1 X175.600 Y147.793 F5400.000
G1 X181.104 Y147.754 F5400.000
G1 E2.00000 F3600.00000
G1 F900
G1 X209.896 Y147.754 E2.88163
G1 X209.896 Y159.546 E3.24272
G1 X181.104 Y159.546 E4.12434
G1 X181.104 Y147.814 E4.48359
G1 X181.511 Y148.161 F5400.000
G1 F900
G1 X209.489 Y148.161 E5.34029
G1 X209.489 Y159.139 E5.67645
G1 X181.511 Y159.139 E6.53315
G1 X181.511 Y148.221 E6.86747
G1 X181.918 Y148.568 F5400.000
G1 F900
G1 X209.082 Y148.568 E7.69924
G1 X209.082 Y158.732 E8.01047
G1 X181.918 Y158.732 E8.84224
G1 X181.918 Y148.628 E9.15163
G1 X181.761 Y148.200 F5400.000
G1 F4320
G1 X184.318 Y148.623 E7.25163
G1 E7.15163 F3600.00000
G92 E0
G1 X171.414 Y152.216 F5400.000
G1 E2.00000 F3600.00000
G1 F900
G1 X171.559 Y152.780 E2.01784
G1 X171.632 Y153.359 E2.03569
G1 X171.632 Y153.941 E2.05354
G1 X171.559 Y154.520 E2.07139
G1 X171.414 Y155.084 E2.08923
G1 X171.200 Y155.626 E2.10708
G1 X170.919 Y156.137 E2.12493
G1 X170.576 Y156.608 E2.14277
G1 X170.177 Y157.033 E2.16062
G1 X169.728 Y157.405 E2.17847
G1 X169.236 Y157.717 E2.19631
G1 X168.709 Y157.965 E2.21416
G1 X168.154 Y158.145 E2.23200
G1 X167.577 Y158.256 E2.25001
G1 X166.957 Y158.289 E2.26900
G1 X166.418 Y158.255 E2.28554
G1 X165.846 Y158.145 E2.30339
G1 X165.291 Y157.965 E2.32123
G1 X164.764 Y157.717 E2.33908
G1 X164.272 Y157.405 E2.35692
G1 X163.823 Y157.033 E2.37477
G1 X163.424 Y156.608 E2.39262
G1 X163.081 Y156.137 E2.41046
G1 X162.800 Y155.626 E2.42831
G1 X162.586 Y155.084 E2.44616
G1 X162.441 Y154.520 E2.46400
G1 X162.368 Y153.941 E2.48185
G1 X162.368 Y153.359 E2.49970
G1 X162.441 Y152.780 E2.51755
G1 X162.586 Y152.216 E2.53539
G1 X162.800 Y151.674 E2.55324
G1 X163.081 Y151.163 E2.57109
G1 X163.424 Y150.692 E2.58893
G1 X163.823 Y150.267 E2.60678
G1 X164.272 Y149.895 E2.62463
G1 X164.764 Y149.583 E2.64247
G1 X165.291 Y149.335 E2.66032
G1 X165.851 Y149.153 E2.67832
G1 X166.461 Y149.043 E2.69731
G1 X167.000 Y149.009 E2.71385
G1 X167.582 Y149.045 E2.73170
G1 X168.154 Y149.155 E2.74955
G1 X168.709 Y149.335 E2.76739
G1 X169.236 Y149.583 E2.78524
G1 X169.728 Y149.895 E2.80308
G1 X170.177 Y150.267 E2.82093
G1 X170.576 Y150.692 E2.83878
G1 X170.919 Y151.163 E2.85662
G1 X171.200 Y151.674 E2.87447
G1 X171.392 Y152.160 E2.89048
G1 X171.013 Y152.310 F5400.000
G1 F900
G1 X171.158 Y152.857 E2.90781
G1 X171.225 Y153.384 E2.92408
G1 X171.225 Y153.916 E2.94036
G1 X171.158 Y154.443 E2.95664
G1 X171.026 Y154.958 E2.97292
G1 X170.830 Y155.452 E2.98920
G1 X170.574 Y155.918 E3.00548
G1 X170.262 Y156.348 E3.02175
G1 X169.898 Y156.736 E3.03803
G1 X169.488 Y157.075 E3.05431
G1 X169.039 Y157.360 E3.07059
G1 X168.558 Y157.586 E3.08687
G1 X168.053 Y157.750 E3.10314
G1 X167.528 Y157.851 E3.11952
G1 X166.959 Y157.881 E3.13694
G1 X166.469 Y157.850 E3.15197
G1 X165.947 Y157.750 E3.16825
G1 X165.442 Y157.586 E3.18453
G1 X164.961 Y157.360 E3.20081
G1 X164.512 Y157.075 E3.21708
G1 X164.102 Y156.736 E3.23336
G1 X163.738 Y156.348 E3.24964
G1 X163.426 Y155.918 E3.26592
G1 X163.170 Y155.452 E3.28220
G1 X162.974 Y154.958 E3.29848
G1 X162.842 Y154.443 E3.31475
G1 X162.775 Y153.916 E3.33103
G1 X162.775 Y153.384 E3.34731
G1 X162.842 Y152.857 E3.36359
G1 X162.974 Y152.342 E3.37987
G1 X163.170 Y151.848 E3.39615
G1 X163.426 Y151.382 E3.41243
G1 X163.738 Y150.952 E3.42870
G1 X164.102 Y150.564 E3.44498
G1 X164.512 Y150.225 E3.46126
G1 X164.961 Y149.940 E3.47754
G1 X165.442 Y149.714 E3.49382
G1 X165.950 Y149.549 E3.51019
G1 X166.510 Y149.447 E3.52761
G1 X167.000 Y149.417 E3.54264
G1 X167.531 Y149.450 E3.55892
G1 X168.053 Y149.550 E3.57520
G1 X168.558 Y149.714 E3.59148
G1 X169.039 Y149.940 E3.60776
G1 X169.488 Y150.225 E3.62403
G1 X169.898 Y150.564 E3.64031
G1 X170.262 Y150.952 E3.65659
G1 X170.574 Y151.382 E3.67287
G1 X170.830 Y151.848 E3.68915
G1 X170.991 Y152.254 E3.70254
G1 X170.613 Y152.404 F5400.000
G1 F900
G1 X170.758 Y152.933 E3.71934
G1 X170.818 Y153.410 E3.73405
G1 X170.818 Y153.890 E3.74876
G1 X170.758 Y154.367 E3.76347
G1 X170.638 Y154.832 E3.77818
G1 X170.461 Y155.279 E3.79289
G1 X170.230 Y155.700 E3.80760
G1 X169.948 Y156.088 E3.82231
G1 X169.619 Y156.439 E3.83702
G1 X169.249 Y156.745 E3.85173
G1 X168.843 Y157.002 E3.86644
G1 X168.408 Y157.207 E3.88115
G1 X167.951 Y157.355 E3.89586
G1 X167.478 Y157.445 E3.91060
G1 X166.961 Y157.473 E3.92646
G1 X166.521 Y157.445 E3.93998
G1 X166.049 Y157.355 E3.95469
G1 X165.592 Y157.207 E3.96940
G1 X165.157 Y157.002 E3.98411
G1 X164.751 Y156.745 E3.99882
G1 X164.381 Y156.439 E4.01353
G1 X164.052 Y156.088 E4.02824
G1 X163.770 Y155.700 E4.04295
G1 X163.539 Y155.279 E4.05766
G1 X163.362 Y154.832 E4.07237
G1 X163.242 Y154.367 E4.08708
G1 X163.182 Y153.890 E4.10179
G1 X163.182 Y153.410 E4.11650
G1 X163.242 Y152.933 E4.13121
G1 X163.362 Y152.468 E4.14592
G1 X163.539 Y152.021 E4.16063
G1 X163.770 Y151.600 E4.17534
G1 X164.052 Y151.212 E4.19005
G1 X164.381 Y150.861 E4.20476
G1 X164.751 Y150.555 E4.21947
G1 X165.157 Y150.298 E4.23418
G1 X165.592 Y150.093 E4.24889
G1 X166.050 Y149.944 E4.26363
G1 X166.559 Y149.852 E4.27948
G1 X167.000 Y149.825 E4.29301
G1 X167.479 Y149.855 E4.30772
G1 X167.951 Y149.945 E4.32243
G1 X168.408 Y150.093 E4.33714
G1 X168.843 Y150.298 E4.35185
G1 X169.249 Y150.555 E4.36656
G1 X169.619 Y150.861 E4.38127
G1 X169.948 Y151.212 E4.39598
G1 X170.230 Y151.600 E4.41069
G1 X170.461 Y152.021 E4.42540
G1 X170.591 Y152.348 E4.43616
G1 X171.005 Y152.482 F5400.000
G1 F4320
G1 X170.758 Y152.933 E3.95455
G1 F4320
G1 X170.818 Y153.410 E3.57423
G1 F4320
G1 X170.818 Y153.890 E3.19390
G1 F4320
G1 X170.758 Y154.367 E2.81358
G1 F4320
G1 X170.671 Y154.706 E2.53616
G1 E2.43616 F3600.00000
G92 E0
G1 X187.668 Y144.079 F5400.000
G1 E2.00000 F3600.00000
G1 F900
G1 X224.217 Y144.079 E3.11914
G1 X224.427 Y144.123 E3.12571
G1 X224.532 Y144.199 E3.12968
G1 X224.623 Y144.308 E3.13402
G1 X224.668 Y144.504 E3.14017
G1 X224.668 Y161.996 E3.67577
G1 X224.623 Y162.192 E3.68192
G1 X224.532 Y162.301 E3.68626
G1 X224.427 Y162.377 E3.69023
G1 X224.217 Y162.421 E3.69680
G1 X155.783 Y162.421 E5.79227
G1 X155.573 Y162.377 E5.79884
G1 X155.468 Y162.301 E5.80281
G1 X155.377 Y162.192 E5.80715
G1 X155.332 Y161.996 E5.81330
G1 X155.332 Y142.289 E6.41672
G1 X187.668 Y142.289 E7.40684
G1 X187.668 Y144.019 E7.45981
G1 X188.075 Y143.672 F5400.000
G1 F900
G1 X224.230 Y143.672 E8.56688
G1 X224.334 Y143.679 E8.57006
G1 X224.630 Y143.767 E8.57953
G1 X224.813 Y143.900 E8.58646
G1 X224.958 Y144.075 E8.59340
G1 X225.034 Y144.244 E8.59909
G1 X225.075 Y144.467 E8.60601
G1 X225.075 Y162.033 E9.14391
G1 X225.034 Y162.256 E9.15084
G1 X224.996 Y162.356 E9.15412
G1 X224.813 Y162.600 E9.16344
G1 X224.630 Y162.733 E9.17037
G1 X224.334 Y162.821 E9.17985
G1 X224.230 Y162.828 E9.18302
G1 X155.770 Y162.828 E11.27927
G1 X155.666 Y162.821 E11.28245
G1 X155.370 Y162.733 E11.29192
G1 X155.187 Y162.600 E11.29885
G1 X155.042 Y162.425 E11.30579
G1 X154.966 Y162.256 E11.31148
G1 X154.925 Y162.033 E11.31840
G1 X154.925 Y127.967 E12.36153
G1 X154.997 Y127.663 E12.37110
G1 X155.116 Y127.476 E12.37788
G1 X155.266 Y127.334 E12.38420
G1 X155.447 Y127.235 E12.39051
G1 X155.666 Y127.179 E12.39744
G1 X155.770 Y127.172 E12.40062
G1 X187.234 Y127.174 E13.36404
G1 X187.537 Y127.226 E13.37346
G1 X187.804 Y127.388 E13.38303
G1 X187.958 Y127.574 E13.39042
G1 X188.029 Y127.726 E13.39555
G1 X188.075 Y127.968 E13.40310
G1 X188.075 Y143.612 E13.88211
G1 X188.482 Y143.265 F5400.000
G1 F900
G1 X224.243 Y143.265 E14.97711
G1 X224.398 Y143.275 E14.98185
G1 X224.711 Y143.355 E14.99176
G1 X224.838 Y143.415 E14.99607
G1 X225.094 Y143.601 E15.00575
G1 X225.296 Y143.845 E15.01544
G1 X225.427 Y144.134 E15.02517
G1 X225.482 Y144.429 E15.03436
G1 X225.482 Y162.071 E15.57455
G1 X225.427 Y162.366 E15.58374
G1 X225.366 Y162.527 E15.58901
G1 X225.296 Y162.655 E15.59349
G1 X225.094 Y162.899 E15.60318
G1 X224.838 Y163.085 E15.61286
G1 X224.711 Y163.145 E15.61717
G1 X224.398 Y163.225 E15.62708
G1 X224.243 Y163.235 E15.63182
G1 X155.757 Y163.235 E17.72885
G1 X155.602 Y163.225 E17.73360
G1 X155.289 Y163.145 E17.74350
G1 X155.162 Y163.085 E17.74782
G1 X154.906 Y162.899 E17.75750
G1 X154.704 Y162.655 E17.76718
G1 X154.573 Y162.366 E17.77691
G1 X154.518 Y162.071 E17.78610
G1 X154.518 Y127.929 E18.83152
G1 X154.573 Y127.634 E18.84071
G1 X154.631 Y127.480 E18.84577
G1 X154.800 Y127.214 E18.85540
G1 X155.025 Y127.002 E18.86487
G1 X155.296 Y126.853 E18.87433
G1 X155.602 Y126.775 E18.88402
G1 X155.757 Y126.765 E18.88876
G1 X187.260 Y126.767 E19.85339
G1 X187.563 Y126.806 E19.86275
G1 X187.698 Y126.850 E19.86709
G1 X187.962 Y126.993 E19.87628
G1 X188.091 Y127.097 E19.88134
G1 X188.296 Y127.345 E19.89119
G1 X188.422 Y127.612 E19.90023
G1 X188.482 Y127.930 E19.91014
G1 X188.482 Y143.205 E20.37787
G1 X188.483 Y143.665 F5400.000
G1 F4320
G1 X190.882 Y143.209 E18.47787
G1 E18.37787 F3600.00000
G92 E0
G1 X190.707 Y141.040 F5400.000
G1 X177.675 Y137.143 F5400.000
G1 E2.00000 F3600.00000
G1 F900
G1 X177.432 Y137.354 E2.00986
G1 X177.139 Y137.477 E2.01960
G1 X176.805 Y137.517 E2.02990
G1 X176.476 Y137.476 E2.04004
G1 X176.185 Y137.351 E2.04976
G1 X175.941 Y137.138 E2.05965
G1 X175.767 Y136.838 E2.07028
G1 X175.670 Y136.461 E2.08219
G1 X175.640 Y136.013 E2.09594
G1 X175.671 Y135.562 E2.10979
G1 X175.768 Y135.183 E2.12177
G1 X175.943 Y134.883 E2.13240
G1 X176.184 Y134.671 E2.14224
G1 X176.471 Y134.544 E2.15183
G1 X176.793 Y134.503 E2.16176
G1 X177.123 Y134.543 E2.17196
G1 X177.416 Y134.667 E2.18168
G1 X177.660 Y134.875 E2.19152
G1 X177.837 Y135.166 E2.20195
G1 X177.937 Y135.528 E2.21342
G1 X177.968 Y135.950 E2.22641
G1 X177.939 Y136.437 E2.24132
G1 X177.845 Y136.835 E2.25383
G1 X177.704 Y137.090 E2.26278
G1 X177.788 Y137.444 F5400.000
G1 X178.143 Y137.734 F5400.000
G1 F900
G1 X177.991 Y137.838 E2.26843
G1 X177.669 Y137.975 E2.27914
G1 X177.290 Y138.060 E2.29102
G1 X176.850 Y138.089 E2.30453
G1 X176.402 Y138.063 E2.31827
G1 X176.016 Y137.990 E2.33031
G1 X175.693 Y137.871 E2.34084
G1 X175.421 Y137.703 E2.35062
G1 X175.185 Y137.481 E2.36057
G1 X174.983 Y137.200 E2.37114
G1 X174.830 Y136.865 E2.38244
G1 X174.736 Y136.471 E2.39484
G1 X174.704 Y136.016 E2.40878
G1 X174.767 Y135.389 E2.42808
G1 X174.951 Y134.880 E2.44465
G1 X175.251 Y134.475 E2.46008
G1 X175.659 Y134.177 E2.47555
G1 X176.171 Y133.995 E2.49219
G1 X176.797 Y133.932 E2.51146
G1 X177.438 Y133.994 E2.53119
G1 X177.957 Y134.174 E2.54801
G1 X178.364 Y134.466 E2.56335
G1 X178.660 Y134.863 E2.57852
G1 X178.842 Y135.363 E2.59481
G1 X178.905 Y135.982 E2.61384
G1 X178.877 Y136.437 E2.62780
G1 X178.796 Y136.828 E2.64004
G1 X178.665 Y137.153 E2.65077
G1 X178.487 Y137.425 E2.66072
G1 X178.262 Y137.652 E2.67052
G1 X178.193 Y137.700 E2.67309
G1 X177.973 Y137.661 F5400.000
G1 F4320
G1 X177.991 Y137.838 E2.47945
G1 F4320
G1 X177.669 Y137.975 E2.20265
G1 F4320
G1 X177.290 Y138.060 E1.89550
G1 F4320
G1 X176.850 Y138.089 E1.54621
G1 F4320
G1 X176.402 Y138.063 E1.19074
G1 F4320
G1 X176.016 Y137.990 E0.87961
G1 F4320
G1 X175.890 Y137.943 E0.77309
G1 E0.67309 F3600.00000
G92 E0
G1 X155.687 Y124.540 F5400.000
G1 X158.646 Y135.851 F5400.000
G1 E2.00000 F3600.00000
G1 F900
G1 X158.646 Y134.437 E2.04329
G1 X159.735 Y134.455 E2.07664
G1 X159.963 Y134.509 E2.08381
G1 X160.146 Y134.614 E2.09027
G1 X160.271 Y134.767 E2.09631
G1 X160.341 Y134.945 E2.10217
G1 X160.363 Y135.151 E2.10851
G1 X160.310 Y135.412 E2.11667
G1 X160.223 Y135.560 E2.12193
G1 X160.017 Y135.737 E2.13025
G1 X159.706 Y135.819 E2.14010
G1 X159.471 Y135.851 E2.14735
G1 X158.706 Y135.851 E2.17078
G1 X158.246 Y135.855 F5400.000
G1 X158.706 Y136.233 F5400.000
G1 F900
G1 X158.646 Y136.233 E2.17262
G1 X158.646 Y138.025 E2.22749
G1 X157.703 Y138.025 E2.25637
G1 X157.703 Y133.996 E2.37974
G1 X160.095 Y134.005 E2.45297
