;Project BoxBase
;Created by Estlcam version 10 build 10,037
;Machining time about 00:10:01 hours

G90
G92 X0 Y0 Z0
;G1 X52 Y12 F4000
;G1 Z0 ; premove
;M84 Z
;M00; wait to confirm everything is aligned
M17
;G92 X Y Z
G0 Z1.0000 F500


;No. 1: Hole 5
G0 X12.5003 Y86.4365 F3000
G0 Z0.5000 F500
G1 Z-3.0000 F180 S24000
G1 X12.4883 Y86.4361 F60
G1 X12.4764 Y86.4379
G1 X12.4651 Y86.4419
G1 X12.4547 Y86.4480
G1 X12.4457 Y86.4559
G1 X12.4382 Y86.4653
G1 X12.4327 Y86.4760
G1 X12.4293 Y86.4875
G1 X12.4281 Y86.5035
G1 X12.4295 Y86.5135
G1 X12.4324 Y86.5231
G1 X12.4367 Y86.5322
G1 X12.4424 Y86.5404
G1 X12.4494 Y86.5477
G1 X12.4574 Y86.5538
G1 X12.4662 Y86.5585
G1 X12.4757 Y86.5619
G1 X12.4930 Y86.5640
G1 X12.5102 Y86.5614
G1 X12.5261 Y86.5543
G1 X12.5394 Y86.5431
G1 X12.5493 Y86.5288
G1 X12.5550 Y86.5123
G1 X12.5560 Y86.4950
G1 X12.5522 Y86.4780
G1 X12.5441 Y86.4626
G1 X12.5321 Y86.4500
G1 X12.5171 Y86.4411
G1 X12.5003 Y86.4365
G1 Z-6.0000 F180
G1 X12.4883 Y86.4361 F60
G1 X12.4764 Y86.4379
G1 X12.4651 Y86.4419
G1 X12.4547 Y86.4480
G1 X12.4457 Y86.4559
G1 X12.4382 Y86.4653
G1 X12.4327 Y86.4760
G1 X12.4293 Y86.4875
G1 X12.4281 Y86.5035
G1 X12.4295 Y86.5135
G1 X12.4324 Y86.5231
G1 X12.4367 Y86.5322
G1 X12.4424 Y86.5404
G1 X12.4494 Y86.5477
G1 X12.4574 Y86.5538
G1 X12.4662 Y86.5585
G1 X12.4757 Y86.5619
G1 X12.4930 Y86.5640
G1 X12.5102 Y86.5614
G1 X12.5261 Y86.5543
G1 X12.5394 Y86.5431
G1 X12.5493 Y86.5288
G1 X12.5550 Y86.5123
G1 X12.5560 Y86.4950
G1 X12.5522 Y86.4780
G1 X12.5441 Y86.4626
G1 X12.5321 Y86.4500
G1 X12.5171 Y86.4411
G1 X12.5003 Y86.4365
G1 Z-9.0000 F180
G1 X12.4883 Y86.4361 F60
G1 X12.4764 Y86.4379
G1 X12.4651 Y86.4419
G1 X12.4547 Y86.4480
G1 X12.4457 Y86.4559
G1 X12.4382 Y86.4653
G1 X12.4327 Y86.4760
G1 X12.4293 Y86.4875
G1 X12.4281 Y86.5035
G1 X12.4295 Y86.5135
G1 X12.4324 Y86.5231
G1 X12.4367 Y86.5322
G1 X12.4424 Y86.5404
G1 X12.4494 Y86.5477
G1 X12.4574 Y86.5538
G1 X12.4662 Y86.5585
G1 X12.4757 Y86.5619
G1 X12.4930 Y86.5640
G1 X12.5102 Y86.5614
G1 X12.5261 Y86.5543
G1 X12.5394 Y86.5431
G1 X12.5493 Y86.5288
G1 X12.5550 Y86.5123
G1 X12.5560 Y86.4950
G1 X12.5522 Y86.4780
G1 X12.5441 Y86.4626
G1 X12.5321 Y86.4500
G1 X12.5171 Y86.4411
G1 X12.5003 Y86.4365
G0 Z1.0000 F500


;No. 2: Hole 4
G0 X32.5003 Y86.4365 Z1.0000 F3000
G0 Z0.5000 F500
G1 Z-3.0000 F180
G1 X32.4883 Y86.4361 F60
G1 X32.4764 Y86.4379
G1 X32.4651 Y86.4419
G1 X32.4547 Y86.4480
G1 X32.4456 Y86.4559
G1 X32.4382 Y86.4653
G1 X32.4327 Y86.4760
G1 X32.4293 Y86.4875
G1 X32.4281 Y86.5035
G1 X32.4295 Y86.5135
G1 X32.4323 Y86.5231
G1 X32.4367 Y86.5322
G1 X32.4424 Y86.5405
G1 X32.4493 Y86.5477
G1 X32.4573 Y86.5538
G1 X32.4662 Y86.5586
G1 X32.4757 Y86.5619
G1 X32.4930 Y86.5640
G1 X32.5102 Y86.5614
G1 X32.5261 Y86.5543
G1 X32.5395 Y86.5431
G1 X32.5493 Y86.5288
G1 X32.5550 Y86.5123
G1 X32.5560 Y86.4950
G1 X32.5522 Y86.4780
G1 X32.5441 Y86.4626
G1 X32.5321 Y86.4500
G1 X32.5171 Y86.4411
G1 X32.5003 Y86.4365
G1 Z-6.0000 F180
G1 X32.4883 Y86.4361 F60
G1 X32.4764 Y86.4379
G1 X32.4651 Y86.4419
G1 X32.4547 Y86.4480
G1 X32.4456 Y86.4559
G1 X32.4382 Y86.4653
G1 X32.4327 Y86.4760
G1 X32.4293 Y86.4875
G1 X32.4281 Y86.5035
G1 X32.4295 Y86.5135
G1 X32.4323 Y86.5231
G1 X32.4367 Y86.5322
G1 X32.4424 Y86.5405
G1 X32.4493 Y86.5477
G1 X32.4573 Y86.5538
G1 X32.4662 Y86.5586
G1 X32.4757 Y86.5619
G1 X32.4930 Y86.5640
G1 X32.5102 Y86.5614
G1 X32.5261 Y86.5543
G1 X32.5395 Y86.5431
G1 X32.5493 Y86.5288
G1 X32.5550 Y86.5123
G1 X32.5560 Y86.4950
G1 X32.5522 Y86.4780
G1 X32.5441 Y86.4626
G1 X32.5321 Y86.4500
G1 X32.5171 Y86.4411
G1 X32.5003 Y86.4365
G1 Z-9.0000 F180
G1 X32.4883 Y86.4361 F60
G1 X32.4764 Y86.4379
G1 X32.4651 Y86.4419
G1 X32.4547 Y86.4480
G1 X32.4456 Y86.4559
G1 X32.4382 Y86.4653
G1 X32.4327 Y86.4760
G1 X32.4293 Y86.4875
G1 X32.4281 Y86.5035
G1 X32.4295 Y86.5135
G1 X32.4323 Y86.5231
G1 X32.4367 Y86.5322
G1 X32.4424 Y86.5405
G1 X32.4493 Y86.5477
G1 X32.4573 Y86.5538
G1 X32.4662 Y86.5586
G1 X32.4757 Y86.5619
G1 X32.4930 Y86.5640
G1 X32.5102 Y86.5614
G1 X32.5261 Y86.5543
G1 X32.5395 Y86.5431
G1 X32.5493 Y86.5288
G1 X32.5550 Y86.5123
G1 X32.5560 Y86.4950
G1 X32.5522 Y86.4780
G1 X32.5441 Y86.4626
G1 X32.5321 Y86.4500
G1 X32.5171 Y86.4411
G1 X32.5003 Y86.4365
G0 Z1.0000 F500


;No. 3: Hole 3
G0 X42.9689 Y106.9403 Z1.0000 F3000
G0 Z0.5000 F500
G1 Z-3.0000 F180
G1 X42.9548 Y106.9479 F60
G1 X42.9430 Y106.9588
G1 X42.9343 Y106.9723
G1 X42.9293 Y106.9875
G1 X42.9281 Y107.0035
G1 X42.9314 Y107.0205
G1 X42.9392 Y107.0360
G1 X42.9508 Y107.0489
G1 X42.9655 Y107.0582
G1 X42.9821 Y107.0632
G1 X42.9994 Y107.0636
G1 X43.0162 Y107.0593
G1 X43.0313 Y107.0506
G1 X43.0434 Y107.0383
G1 X43.0518 Y107.0231
G1 X43.0558 Y107.0062
G1 X43.0552 Y106.9889
G1 X43.0512 Y106.9753
G1 X43.0444 Y106.9630
G1 X43.0350 Y106.9525
G1 X43.0235 Y106.9442
G1 X43.0105 Y106.9387
G1 X42.9967 Y106.9361
G1 X42.9826 Y106.9367
G1 X42.9689 Y106.9403
G1 Z-6.0000 F180
G1 X42.9548 Y106.9479 F60
G1 X42.9430 Y106.9588
G1 X42.9343 Y106.9723
G1 X42.9293 Y106.9875
G1 X42.9281 Y107.0035
G1 X42.9314 Y107.0205
G1 X42.9392 Y107.0360
G1 X42.9508 Y107.0489
G1 X42.9655 Y107.0582
G1 X42.9821 Y107.0632
G1 X42.9994 Y107.0636
G1 X43.0162 Y107.0593
G1 X43.0313 Y107.0506
G1 X43.0434 Y107.0383
G1 X43.0518 Y107.0231
G1 X43.0558 Y107.0062
G1 X43.0552 Y106.9889
G1 X43.0512 Y106.9753
G1 X43.0444 Y106.9630
G1 X43.0350 Y106.9525
G1 X43.0235 Y106.9442
G1 X43.0105 Y106.9387
G1 X42.9967 Y106.9361
G1 X42.9826 Y106.9367
G1 X42.9689 Y106.9403
G1 Z-9.0000 F180
G1 X42.9548 Y106.9479 F60
G1 X42.9430 Y106.9588
G1 X42.9343 Y106.9723
G1 X42.9293 Y106.9875
G1 X42.9281 Y107.0035
G1 X42.9314 Y107.0205
G1 X42.9392 Y107.0360
G1 X42.9508 Y107.0489
G1 X42.9655 Y107.0582
G1 X42.9821 Y107.0632
G1 X42.9994 Y107.0636
G1 X43.0162 Y107.0593
G1 X43.0313 Y107.0506
G1 X43.0434 Y107.0383
G1 X43.0518 Y107.0231
G1 X43.0558 Y107.0062
G1 X43.0552 Y106.9889
G1 X43.0512 Y106.9753
G1 X43.0444 Y106.9630
G1 X43.0350 Y106.9525
G1 X43.0235 Y106.9442
G1 X43.0105 Y106.9387
G1 X42.9967 Y106.9361
G1 X42.9826 Y106.9367
G1 X42.9689 Y106.9403
G0 Z1.0000 F500


;No. 4: Hole 1
G0 X22.4839 Y127.4365 Z1.0000 F3000
G0 Z0.5000 F500
G1 Z-3.0000 F180
G1 X22.4648 Y127.4420 F60
G1 X22.4484 Y127.4532
G1 X22.4361 Y127.4688
G1 X22.4293 Y127.4875
G1 X22.4282 Y127.5035
G1 X22.4315 Y127.5206
G1 X22.4393 Y127.5361
G1 X22.4509 Y127.5490
G1 X22.4656 Y127.5583
G1 X22.4823 Y127.5632
G1 X22.4996 Y127.5635
G1 X22.5165 Y127.5592
G1 X22.5315 Y127.5505
G1 X22.5436 Y127.5380
G1 X22.5519 Y127.5228
G1 X22.5559 Y127.5058
G1 X22.5551 Y127.4885
G1 X22.5507 Y127.4776
G1 X22.5446 Y127.4675
G1 X22.5370 Y127.4584
G1 X22.5281 Y127.4508
G1 X22.5180 Y127.4446
G1 X22.5072 Y127.4401
G1 X22.4957 Y127.4374
G1 X22.4839 Y127.4365
G1 Z-6.0000 F180
G1 X22.4648 Y127.4420 F60
G1 X22.4484 Y127.4532
G1 X22.4361 Y127.4688
G1 X22.4293 Y127.4875
G1 X22.4282 Y127.5035
G1 X22.4315 Y127.5206
G1 X22.4393 Y127.5361
G1 X22.4509 Y127.5490
G1 X22.4656 Y127.5583
G1 X22.4823 Y127.5632
G1 X22.4996 Y127.5635
G1 X22.5165 Y127.5592
G1 X22.5315 Y127.5505
G1 X22.5436 Y127.5380
G1 X22.5519 Y127.5228
G1 X22.5559 Y127.5058
G1 X22.5551 Y127.4885
G1 X22.5507 Y127.4776
G1 X22.5446 Y127.4675
G1 X22.5370 Y127.4584
G1 X22.5281 Y127.4508
G1 X22.5180 Y127.4446
G1 X22.5072 Y127.4401
G1 X22.4957 Y127.4374
G1 X22.4839 Y127.4365
G1 Z-9.0000 F180
G1 X22.4648 Y127.4420 F60
G1 X22.4484 Y127.4532
G1 X22.4361 Y127.4688
G1 X22.4293 Y127.4875
G1 X22.4282 Y127.5035
G1 X22.4315 Y127.5206
G1 X22.4393 Y127.5361
G1 X22.4509 Y127.5490
G1 X22.4656 Y127.5583
G1 X22.4823 Y127.5632
G1 X22.4996 Y127.5635
G1 X22.5165 Y127.5592
G1 X22.5315 Y127.5505
G1 X22.5436 Y127.5380
G1 X22.5519 Y127.5228
G1 X22.5559 Y127.5058
G1 X22.5551 Y127.4885
G1 X22.5507 Y127.4776
G1 X22.5446 Y127.4675
G1 X22.5370 Y127.4584
G1 X22.5281 Y127.4508
G1 X22.5180 Y127.4446
G1 X22.5072 Y127.4401
G1 X22.4957 Y127.4374
G1 X22.4839 Y127.4365
G0 Z1.0000 F500


;No. 5: Hole 2
G0 X2.0003 Y106.9365 Z1.0000 F3000
G0 Z0.5000 F500
G1 Z-3.0000 F180
G1 X1.9883 Y106.9361 F60
G1 X1.9764 Y106.9379
G1 X1.9651 Y106.9419
G1 X1.9547 Y106.9480
G1 X1.9457 Y106.9559
G1 X1.9382 Y106.9653
G1 X1.9327 Y106.9760
G1 X1.9293 Y106.9875
G1 X1.9281 Y107.0035
G1 X1.9315 Y107.0206
G1 X1.9392 Y107.0361
G1 X1.9509 Y107.0490
G1 X1.9657 Y107.0583
G1 X1.9823 Y107.0632
G1 X1.9997 Y107.0635
G1 X2.0166 Y107.0591
G1 X2.0316 Y107.0504
G1 X2.0437 Y107.0379
G1 X2.0520 Y107.0226
G1 X2.0559 Y107.0056
G1 X2.0551 Y106.9882
G1 X2.0525 Y106.9785
G1 X2.0483 Y106.9693
G1 X2.0429 Y106.9609
G1 X2.0361 Y106.9535
G1 X2.0283 Y106.9472
G1 X2.0195 Y106.9422
G1 X2.0101 Y106.9386
G1 X2.0003 Y106.9365
G1 Z-6.0000 F180
G1 X1.9883 Y106.9361 F60
G1 X1.9764 Y106.9379
G1 X1.9651 Y106.9419
G1 X1.9547 Y106.9480
G1 X1.9457 Y106.9559
G1 X1.9382 Y106.9653
G1 X1.9327 Y106.9760
G1 X1.9293 Y106.9875
G1 X1.9281 Y107.0035
G1 X1.9315 Y107.0206
G1 X1.9392 Y107.0361
G1 X1.9509 Y107.0490
G1 X1.9657 Y107.0583
G1 X1.9823 Y107.0632
G1 X1.9997 Y107.0635
G1 X2.0166 Y107.0591
G1 X2.0316 Y107.0504
G1 X2.0437 Y107.0379
G1 X2.0520 Y107.0226
G1 X2.0559 Y107.0056
G1 X2.0551 Y106.9882
G1 X2.0525 Y106.9785
G1 X2.0483 Y106.9693
G1 X2.0429 Y106.9609
G1 X2.0361 Y106.9535
G1 X2.0283 Y106.9472
G1 X2.0195 Y106.9422
G1 X2.0101 Y106.9386
G1 X2.0003 Y106.9365
G1 Z-9.0000 F180
G1 X1.9883 Y106.9361 F60
G1 X1.9764 Y106.9379
G1 X1.9651 Y106.9419
G1 X1.9547 Y106.9480
G1 X1.9457 Y106.9559
G1 X1.9382 Y106.9653
G1 X1.9327 Y106.9760
G1 X1.9293 Y106.9875
G1 X1.9281 Y107.0035
G1 X1.9315 Y107.0206
G1 X1.9392 Y107.0361
G1 X1.9509 Y107.0490
G1 X1.9657 Y107.0583
G1 X1.9823 Y107.0632
G1 X1.9997 Y107.0635
G1 X2.0166 Y107.0591
G1 X2.0316 Y107.0504
G1 X2.0437 Y107.0379
G1 X2.0520 Y107.0226
G1 X2.0559 Y107.0056
G1 X2.0551 Y106.9882
G1 X2.0525 Y106.9785
G1 X2.0483 Y106.9693
G1 X2.0429 Y106.9609
G1 X2.0361 Y106.9535
G1 X2.0283 Y106.9472
G1 X2.0195 Y106.9422
G1 X2.0101 Y106.9386
G1 X2.0003 Y106.9365
G0 Z1.0000 F500


;No. 6: Drill 1
M05

G1 Z5
G0 X-50 Y0 F3000
G1 Z0
M84 Z ; disable steppers
M00 ; wait for tool change
;Change tool: Cut
M03
M17
G1 Z2
G0 X0 Y0 F3000
G1 Z0
M84 Z ; disable steppers
M00 ; wait for confirming
M17
G1 Z2 ; lift tool a bit before next move
G0 X14.4910 Y70.0003 Z1.0000 F3000
G0 Z0.5000 F500
G1 Z-3.0000 F180
G0 Z0.5000 F500
G0 Z-2.5000
G1 Z-6.0000 F180
G0 Z0.5000 F500
G0 Z-5.5000
G1 Z-9.0000 F180
G0 Z1.0000 F500


;No. 7: Hole 6
G0 X14.3980 Y68.5049 Z1.0000 F3000
G0 Z0.5000 F500
G1 Z-3.0000 F180
G1 X14.2037 Y68.5300 F240
G1 X14.0143 Y68.5802
G1 X13.8331 Y68.6547
G1 X13.6631 Y68.7523
G1 X13.5074 Y68.8711
G1 X13.3684 Y69.0093
G1 X13.2487 Y69.1645
G1 X13.1503 Y69.3339
G1 X13.0749 Y69.5148
G1 X13.0237 Y69.7039
G1 X12.9976 Y69.8981
G1 X12.9971 Y70.0941
G1 X13.0221 Y70.2884
G1 X13.0723 Y70.4778
G1 X13.1469 Y70.6590
G1 X13.2444 Y70.8290
G1 X13.3633 Y70.9847
G1 X13.5015 Y71.1237
G1 X13.6566 Y71.2434
G1 X13.8261 Y71.3418
G1 X14.0069 Y71.4172
G1 X14.1960 Y71.4684
G1 X14.3902 Y71.4945
G1 X14.5862 Y71.4950
G1 X14.7805 Y71.4700
G1 X14.9699 Y71.4198
G1 X15.1512 Y71.3452
G1 X15.3211 Y71.2477
G1 X15.4769 Y71.1288
G1 X15.6158 Y70.9906
G1 X15.7355 Y70.8355
G1 X15.8339 Y70.6660
G1 X15.9094 Y70.4852
G1 X15.9606 Y70.2961
G1 X15.9867 Y70.1019
G1 X15.9872 Y69.9059
G1 X15.9621 Y69.7116
G1 X15.9119 Y69.5222
G1 X15.8374 Y69.3409
G1 X15.7398 Y69.1710
G1 X15.6210 Y69.0152
G1 X15.4828 Y68.8763
G1 X15.3276 Y68.7566
G1 X15.1582 Y68.6582
G1 X14.9773 Y68.5827
G1 X14.7882 Y68.5315
G1 X14.5940 Y68.5054
G1 X14.3980 Y68.5049
G1 Z-5.0000 F180
G1 X14.2037 Y68.5300 F240
G1 X14.0143 Y68.5802
G1 X13.8331 Y68.6547
G1 X13.6631 Y68.7523
G1 X13.5074 Y68.8711
G1 X13.3684 Y69.0093
G1 X13.2487 Y69.1645
G1 X13.1503 Y69.3339
G1 X13.0749 Y69.5148
G1 X13.0237 Y69.7039
G1 X12.9976 Y69.8981
G1 X12.9971 Y70.0941
G1 X13.0221 Y70.2884
G1 X13.0723 Y70.4778
G1 X13.1469 Y70.6590
G1 X13.2444 Y70.8290
G1 X13.3633 Y70.9847
G1 X13.5015 Y71.1237
G1 X13.6566 Y71.2434
G1 X13.8261 Y71.3418
G1 X14.0069 Y71.4172
G1 X14.1960 Y71.4684
G1 X14.3902 Y71.4945
G1 X14.5862 Y71.4950
G1 X14.7805 Y71.4700
G1 X14.9699 Y71.4198
G1 X15.1512 Y71.3452
G1 X15.3211 Y71.2477
G1 X15.4769 Y71.1288
G1 X15.6158 Y70.9906
G1 X15.7355 Y70.8355
G1 X15.8339 Y70.6660
G1 X15.9094 Y70.4852
G1 X15.9606 Y70.2961
G1 X15.9867 Y70.1019
G1 X15.9872 Y69.9059
G1 X15.9621 Y69.7116
G1 X15.9119 Y69.5222
G1 X15.8374 Y69.3409
G1 X15.7398 Y69.1710
G1 X15.6210 Y69.0152
G1 X15.4828 Y68.8763
G1 X15.3276 Y68.7566
G1 X15.1582 Y68.6582
G1 X14.9773 Y68.5827
G1 X14.7882 Y68.5315
G1 X14.5940 Y68.5054
G1 X14.3980 Y68.5049
G0 Z1.0000 F500


;No. 8: Drill 2
G0 X38.4858 Y28.9986 Z1.0000 F3000
G0 Z0.5000 F500
G1 Z-3.0000 F180
G0 Z0.5000 F500
G0 Z-2.5000
G1 Z-6.0000 F180
G0 Z0.5000 F500
G0 Z-5.5000
G1 Z-9.0000 F180
G0 Z1.0000 F500


;No. 9: Hole 7
G0 X37.4001 Y27.9745 Z1.0000 F3000
G0 Z0.5000 F500
G1 Z-3.0000 F180
G1 X37.2756 Y28.1258 F240
G1 X37.1719 Y28.2921
G1 X37.0908 Y28.4705
G1 X37.0336 Y28.6579
G1 X37.0015 Y28.8512
G1 X36.9948 Y29.0471
G1 X37.0138 Y29.2421
G1 X37.0580 Y29.4330
G1 X37.1268 Y29.6165
G1 X37.2190 Y29.7894
G1 X37.3329 Y29.9488
G1 X37.4667 Y30.0920
G1 X37.6180 Y30.2165
G1 X37.7842 Y30.3202
G1 X37.9626 Y30.4013
G1 X38.1501 Y30.4584
G1 X38.3434 Y30.4906
G1 X38.5392 Y30.4973
G1 X38.7342 Y30.4783
G1 X38.9251 Y30.4341
G1 X39.1086 Y30.3653
G1 X39.2815 Y30.2731
G1 X39.4410 Y30.1592
G1 X39.5841 Y30.0254
G1 X39.7087 Y29.8741
G1 X39.8123 Y29.7079
G1 X39.8934 Y29.5295
G1 X39.9506 Y29.3420
G1 X39.9827 Y29.1487
G1 X39.9894 Y28.9529
G1 X39.9704 Y28.7579
G1 X39.9262 Y28.5670
G1 X39.8574 Y28.3835
G1 X39.7653 Y28.2106
G1 X39.6513 Y28.0511
G1 X39.5176 Y27.9079
G1 X39.3662 Y27.7834
G1 X39.2000 Y27.6797
G1 X39.0216 Y27.5986
G1 X38.8342 Y27.5415
G1 X38.6409 Y27.5094
G1 X38.4450 Y27.5027
G1 X38.2500 Y27.5216
G1 X38.0591 Y27.5659
G1 X37.8756 Y27.6347
G1 X37.7027 Y27.7268
G1 X37.5433 Y27.8408
G1 X37.4001 Y27.9745
G1 Z-5.0000 F180
G1 X37.2756 Y28.1258 F240
G1 X37.1719 Y28.2921
G1 X37.0908 Y28.4705
G1 X37.0336 Y28.6579
G1 X37.0015 Y28.8512
G1 X36.9948 Y29.0471
G1 X37.0138 Y29.2421
G1 X37.0580 Y29.4330
G1 X37.1268 Y29.6165
G1 X37.2190 Y29.7894
G1 X37.3329 Y29.9488
G1 X37.4667 Y30.0920
G1 X37.6180 Y30.2165
G1 X37.7842 Y30.3202
G1 X37.9626 Y30.4013
G1 X38.1501 Y30.4584
G1 X38.3434 Y30.4906
G1 X38.5392 Y30.4973
G1 X38.7342 Y30.4783
G1 X38.9251 Y30.4341
G1 X39.1086 Y30.3653
G1 X39.2815 Y30.2731
G1 X39.4410 Y30.1592
G1 X39.5841 Y30.0254
G1 X39.7087 Y29.8741
G1 X39.8123 Y29.7079
G1 X39.8934 Y29.5295
G1 X39.9506 Y29.3420
G1 X39.9827 Y29.1487
G1 X39.9894 Y28.9529
G1 X39.9704 Y28.7579
G1 X39.9262 Y28.5670
G1 X39.8574 Y28.3835
G1 X39.7653 Y28.2106
G1 X39.6513 Y28.0511
G1 X39.5176 Y27.9079
G1 X39.3662 Y27.7834
G1 X39.2000 Y27.6797
G1 X39.0216 Y27.5986
G1 X38.8342 Y27.5415
G1 X38.6409 Y27.5094
G1 X38.4450 Y27.5027
G1 X38.2500 Y27.5216
G1 X38.0591 Y27.5659
G1 X37.8756 Y27.6347
G1 X37.7027 Y27.7268
G1 X37.5433 Y27.8408
G1 X37.4001 Y27.9745
G0 Z1.0000 F500


;No. 10: Drill 3
G0 X21.9936 Y3.9947 Z1.0000 F3000
G0 Z0.5000 F500
G1 Z-3.0000 F180
G0 Z0.5000 F500
G0 Z-2.5000
G1 Z-6.0000 F180
G0 Z0.5000 F500
G0 Z-5.5000
G1 Z-9.0000 F180
G0 Z1.0000 F500


;No. 11: Hole 8
G0 X20.5411 Y3.6275 Z1.0000 F3000
G0 Z0.5000 F500
G1 Z-3.0000 F180
G1 X20.5049 Y3.8201 F240
G1 X20.4942 Y4.0157
G1 X20.5090 Y4.2111
G1 X20.5493 Y4.4029
G1 X20.6142 Y4.5878
G1 X20.7027 Y4.7626
G1 X20.8133 Y4.9243
G1 X20.9440 Y5.0703
G1 X21.0927 Y5.1979
G1 X21.2568 Y5.3051
G1 X21.4334 Y5.3899
G1 X21.6196 Y5.4509
G1 X21.8122 Y5.4871
G1 X22.0078 Y5.4979
G1 X22.2032 Y5.4830
G1 X22.3950 Y5.4428
G1 X22.5799 Y5.3779
G1 X22.7547 Y5.2894
G1 X22.9164 Y5.1788
G1 X23.0624 Y5.0481
G1 X23.1900 Y4.8994
G1 X23.2972 Y4.7353
G1 X23.3820 Y4.5587
G1 X23.4430 Y4.3725
G1 X23.4793 Y4.1799
G1 X23.4900 Y3.9843
G1 X23.4751 Y3.7889
G1 X23.4349 Y3.5971
G1 X23.3700 Y3.4122
G1 X23.2815 Y3.2374
G1 X23.1709 Y3.0756
G1 X23.0402 Y2.9297
G1 X22.8915 Y2.8020
G1 X22.7274 Y2.6949
G1 X22.5508 Y2.6101
G1 X22.3646 Y2.5490
G1 X22.1720 Y2.5128
G1 X21.9764 Y2.5021
G1 X21.7810 Y2.5169
G1 X21.5892 Y2.5572
G1 X21.4043 Y2.6221
G1 X21.2295 Y2.7106
G1 X21.0677 Y2.8212
G1 X20.9218 Y2.9519
G1 X20.7941 Y3.1006
G1 X20.6870 Y3.2647
G1 X20.6022 Y3.4413
G1 X20.5411 Y3.6275
G1 Z-5.0000 F180
G1 X20.5049 Y3.8201 F240
G1 X20.4942 Y4.0157
G1 X20.5090 Y4.2111
G1 X20.5493 Y4.4029
G1 X20.6142 Y4.5878
G1 X20.7027 Y4.7626
G1 X20.8133 Y4.9243
G1 X20.9440 Y5.0703
G1 X21.0927 Y5.1979
G1 X21.2568 Y5.3051
G1 X21.4334 Y5.3899
G1 X21.6196 Y5.4509
G1 X21.8122 Y5.4871
G1 X22.0078 Y5.4979
G1 X22.2032 Y5.4830
G1 X22.3950 Y5.4428
G1 X22.5799 Y5.3779
G1 X22.7547 Y5.2894
G1 X22.9164 Y5.1788
G1 X23.0624 Y5.0481
G1 X23.1900 Y4.8994
G1 X23.2972 Y4.7353
G1 X23.3820 Y4.5587
G1 X23.4430 Y4.3725
G1 X23.4793 Y4.1799
G1 X23.4900 Y3.9843
G1 X23.4751 Y3.7889
G1 X23.4349 Y3.5971
G1 X23.3700 Y3.4122
G1 X23.2815 Y3.2374
G1 X23.1709 Y3.0756
G1 X23.0402 Y2.9297
G1 X22.8915 Y2.8020
G1 X22.7274 Y2.6949
G1 X22.5508 Y2.6101
G1 X22.3646 Y2.5490
G1 X22.1720 Y2.5128
G1 X21.9764 Y2.5021
G1 X21.7810 Y2.5169
G1 X21.5892 Y2.5572
G1 X21.4043 Y2.6221
G1 X21.2295 Y2.7106
G1 X21.0677 Y2.8212
G1 X20.9218 Y2.9519
G1 X20.7941 Y3.1006
G1 X20.6870 Y3.2647
G1 X20.6022 Y3.4413
G1 X20.5411 Y3.6275
G0 Z1.0000 F500


;No. 12: Part 1
G0 X0.5248 Y0.3996 Z1.0000 F3000
G0 Z0.5000 F500
G1 Z-3.0000 F180
G1 X0.7630 Y0.1844 F240
G1 X1.0144 Y-0.0151
G1 X1.2781 Y-0.1981
G1 X1.5530 Y-0.3637
G1 X1.8380 Y-0.5114
G1 X2.1319 Y-0.6405
G1 X2.4335 Y-0.7504
G1 X2.7415 Y-0.8407
G1 X3.0546 Y-0.9111
G1 X3.3717 Y-0.9612
G1 X3.6913 Y-0.9909
G1 X4.0121 Y-1.0000
G1 X40.9921
G1 X41.3727 Y-0.9852
G1 X41.7510 Y-0.9414
G1 X42.1250 Y-0.8690
G1 X42.4923 Y-0.7683
G1 X42.8509 Y-0.6400
G1 X43.1987 Y-0.4848
G1 X43.5337 Y-0.3035
G1 X43.8539 Y-0.0973
G1 X44.1576 Y0.1327
G1 X44.4428 Y0.3851
G1 X44.7080 Y0.6585
G1 X44.9516 Y0.9512
G1 X45.1722 Y1.2617
G1 X45.3686 Y1.5880
G1 X45.5396 Y1.9284
G1 X45.6842 Y2.2808
G1 X45.8015 Y2.6431
G1 X45.8910 Y3.0133
G1 X45.9520 Y3.3893
G1 X45.9842 Y3.7688
G1 Y126.2512
G1 X45.9507 Y126.6307
G1 X45.8883 Y127.0066
G1 X45.7976 Y127.3766
G1 X45.6789 Y127.7386
G1 X45.5329 Y128.0906
G1 X45.3606 Y128.4304
G1 X45.1629 Y128.7560
G1 X44.9410 Y129.0657
G1 X44.6962 Y129.3576
G1 X44.4298 Y129.6300
G1 X44.1434 Y129.8813
G1 X43.8388 Y130.1101
G1 X43.5176 Y130.3150
G1 X43.1817 Y130.4948
G1 X42.8331 Y130.6486
G1 X42.4738 Y130.7753
G1 X42.1059 Y130.8743
G1 X41.7315 Y130.9450
G1 X41.3529 Y130.9870
G1 X40.9721 Y131.0000
G1 X3.9921
G1 X3.6114 Y130.9855
G1 X3.2329 Y130.9421
G1 X2.8588 Y130.8699
G1 X2.4913 Y130.7695
G1 X2.1326 Y130.6413
G1 X1.7846 Y130.4862
G1 X1.4494 Y130.3050
G1 X1.1291 Y130.0988
G1 X0.8254 Y129.8688
G1 X0.5401 Y129.6164
G1 X0.2748 Y129.3429
G1 X0.0312 Y129.0500
G1 X-0.1895 Y128.7394
G1 X-0.3858 Y128.4129
G1 X-0.5566 Y128.0724
G1 X-0.7011 Y127.7199
G1 X-0.8182 Y127.3573
G1 X-0.9074 Y126.9870
G1 X-0.9681 Y126.6108
G1 X-1.0000 Y126.2312
G1 Y3.7488
G1 X-0.9747 Y3.4358
G1 X-0.9297 Y3.1250
G1 X-0.8652 Y2.8176
G1 X-0.7816 Y2.5149
G1 X-0.6790 Y2.2181
G1 X-0.5579 Y1.9284
G1 X-0.4189 Y1.6468
G1 X-0.2623 Y1.3745
G1 X-0.0890 Y1.1127
G1 X0.1005 Y0.8623
G1 X0.3054 Y0.6243
G1 X0.5248 Y0.3996
G1 Z-6.0000 F180
G1 X0.7630 Y0.1844 F240
G1 X1.0144 Y-0.0151
G1 X1.2781 Y-0.1981
G1 X1.5530 Y-0.3637
G1 X1.8380 Y-0.5114
G1 X2.1319 Y-0.6405
G1 X2.4335 Y-0.7504
G1 X2.7415 Y-0.8407
G1 X3.0546 Y-0.9111
G1 X3.3717 Y-0.9612
G1 X3.6913 Y-0.9909
G1 X4.0121 Y-1.0000
G1 X40.9921
G1 X41.3727 Y-0.9852
G1 X41.7510 Y-0.9414
G1 X42.1250 Y-0.8690
G1 X42.4923 Y-0.7683
G1 X42.8509 Y-0.6400
G1 X43.1987 Y-0.4848
G1 X43.5337 Y-0.3035
G1 X43.8539 Y-0.0973
G1 X44.1576 Y0.1327
G1 X44.4428 Y0.3851
G1 X44.7080 Y0.6585
G1 X44.9516 Y0.9512
G1 X45.1722 Y1.2617
G1 X45.3686 Y1.5880
G1 X45.5396 Y1.9284
G1 X45.6842 Y2.2808
G1 X45.8015 Y2.6431
G1 X45.8910 Y3.0133
G1 X45.9520 Y3.3893
G1 X45.9842 Y3.7688
G1 Y126.2512
G1 X45.9507 Y126.6307
G1 X45.8883 Y127.0066
G1 X45.7976 Y127.3766
G1 X45.6789 Y127.7386
G1 X45.5329 Y128.0906
G1 X45.3606 Y128.4304
G1 X45.1629 Y128.7560
G1 X44.9410 Y129.0657
G1 X44.6962 Y129.3576
G1 X44.4298 Y129.6300
G1 X44.1434 Y129.8813
G1 X43.8388 Y130.1101
G1 X43.5176 Y130.3150
G1 X43.1817 Y130.4948
G1 X42.8331 Y130.6486
G1 X42.4738 Y130.7753
G1 X42.1059 Y130.8743
G1 X41.7315 Y130.9450
G1 X41.3529 Y130.9870
G1 X40.9721 Y131.0000
G1 X3.9921
G1 X3.6114 Y130.9855
G1 X3.2329 Y130.9421
G1 X2.8588 Y130.8699
G1 X2.4913 Y130.7695
G1 X2.1326 Y130.6413
G1 X1.7846 Y130.4862
G1 X1.4494 Y130.3050
G1 X1.1291 Y130.0988
G1 X0.8254 Y129.8688
G1 X0.5401 Y129.6164
G1 X0.2748 Y129.3429
G1 X0.0312 Y129.0500
G1 X-0.1895 Y128.7394
G1 X-0.3858 Y128.4129
G1 X-0.5566 Y128.0724
G1 X-0.7011 Y127.7199
G1 X-0.8182 Y127.3573
G1 X-0.9074 Y126.9870
G1 X-0.9681 Y126.6108
G1 X-1.0000 Y126.2312
G1 Y3.7488
G1 X-0.9747 Y3.4358
G1 X-0.9297 Y3.1250
G1 X-0.8652 Y2.8176
G1 X-0.7816 Y2.5149
G1 X-0.6790 Y2.2181
G1 X-0.5579 Y1.9284
G1 X-0.4189 Y1.6468
G1 X-0.2623 Y1.3745
G1 X-0.0890 Y1.1127
G1 X0.1005 Y0.8623
G1 X0.3054 Y0.6243
G1 X0.5248 Y0.3996
G1 Z-9.0000 F180
G1 X0.7630 Y0.1844 F240
G1 X1.0144 Y-0.0151
G1 X1.2781 Y-0.1981
G1 X1.5530 Y-0.3637
G1 X1.8380 Y-0.5114
G1 X2.1319 Y-0.6405
G1 X2.4335 Y-0.7504
G1 X2.7415 Y-0.8407
G1 X3.0546 Y-0.9111
G1 X3.3717 Y-0.9612
G1 X3.6913 Y-0.9909
G1 X4.0121 Y-1.0000
G1 X40.9921
G1 X41.3727 Y-0.9852
G1 X41.7510 Y-0.9414
G1 X42.1250 Y-0.8690
G1 X42.4923 Y-0.7683
G1 X42.8509 Y-0.6400
G1 X43.1987 Y-0.4848
G1 X43.5337 Y-0.3035
G1 X43.8539 Y-0.0973
G1 X44.1576 Y0.1327
G1 X44.4428 Y0.3851
G1 X44.7080 Y0.6585
G1 X44.9516 Y0.9512
G1 X45.1722 Y1.2617
G1 X45.3686 Y1.5880
G1 X45.5396 Y1.9284
G1 X45.6842 Y2.2808
G1 X45.8015 Y2.6431
G1 X45.8910 Y3.0133
G1 X45.9520 Y3.3893
G1 X45.9842 Y3.7688
G1 Y126.2512
G1 X45.9507 Y126.6307
G1 X45.8883 Y127.0066
G1 X45.7976 Y127.3766
G1 X45.6789 Y127.7386
G1 X45.5329 Y128.0906
G1 X45.3606 Y128.4304
G1 X45.1629 Y128.7560
G1 X44.9410 Y129.0657
G1 X44.6962 Y129.3576
G1 X44.4298 Y129.6300
G1 X44.1434 Y129.8813
G1 X43.8388 Y130.1101
G1 X43.5176 Y130.3150
G1 X43.1817 Y130.4948
G1 X42.8331 Y130.6486
G1 X42.4738 Y130.7753
G1 X42.1059 Y130.8743
G1 X41.7315 Y130.9450
G1 X41.3529 Y130.9870
G1 X40.9721 Y131.0000
G1 X3.9921
G1 X3.6114 Y130.9855
G1 X3.2329 Y130.9421
G1 X2.8588 Y130.8699
G1 X2.4913 Y130.7695
G1 X2.1326 Y130.6413
G1 X1.7846 Y130.4862
G1 X1.4494 Y130.3050
G1 X1.1291 Y130.0988
G1 X0.8254 Y129.8688
G1 X0.5401 Y129.6164
G1 X0.2748 Y129.3429
G1 X0.0312 Y129.0500
G1 X-0.1895 Y128.7394
G1 X-0.3858 Y128.4129
G1 X-0.5566 Y128.0724
G1 X-0.7011 Y127.7199
G1 X-0.8182 Y127.3573
G1 X-0.9074 Y126.9870
G1 X-0.9681 Y126.6108
G1 X-1.0000 Y126.2312
G1 Y3.7488
G1 X-0.9747 Y3.4358
G1 X-0.9297 Y3.1250
G1 X-0.8652 Y2.8176
G1 X-0.7816 Y2.5149
G1 X-0.6790 Y2.2181
G1 X-0.5579 Y1.9284
G1 X-0.4189 Y1.6468
G1 X-0.2623 Y1.3745
G1 X-0.0890 Y1.1127
G1 X0.1005 Y0.8623
G1 X0.3054 Y0.6243
G1 X0.5248 Y0.3996
G0 Z1.0000 F500
G0 X0.0000 Y0.0000 F3000

M05
M84; disable steppers
